dist/img/icons/benefits/law.svg

<svg width="27" height="27" viewBox="0 0 27 27" fill="none" xmlns="http://www.w3.org/2000/svg">
<path d="M23.7582 22.1857H23.7449V20.8523C23.7449 20.684 23.5947 20.5607 23.4265 20.5607H10.132C10.0929 20.5593 10.0539 20.5658 10.0173 20.5799C9.9808 20.5939 9.94747 20.6152 9.91935 20.6424C9.89123 20.6696 9.86889 20.7023 9.85369 20.7383C9.83848 20.7744 9.83072 20.8132 9.83086 20.8523V22.1857H9.80039C9.5761 22.1867 9.35421 22.232 9.14746 22.319C8.94071 22.4059 8.75316 22.5329 8.59558 22.6925C8.438 22.8521 8.31348 23.0412 8.22917 23.2491C8.14487 23.4569 8.10243 23.6794 8.1043 23.9037V24.3662C8.10221 24.4054 8.10802 24.4446 8.1214 24.4814C8.13478 24.5183 8.15544 24.5521 8.18216 24.5809C8.20888 24.6096 8.24111 24.6326 8.27693 24.6486C8.31275 24.6646 8.35143 24.6733 8.39065 24.674H25.1678C25.2488 24.6733 25.3263 24.6405 25.3832 24.5828C25.4401 24.5251 25.4718 24.4472 25.4715 24.3662V23.9037C25.4713 23.4489 25.2909 23.0127 24.9698 22.6907C24.6486 22.3687 24.213 22.1871 23.7582 22.1857ZM10.4402 21.1701H23.1355V22.1857H10.4402V21.1701ZM24.8621 24.0646H8.71367V23.9037C8.71172 23.7594 8.73834 23.6161 8.79199 23.4822C8.84564 23.3482 8.92527 23.2262 9.02628 23.1232C9.12729 23.0201 9.2477 22.9381 9.38055 22.8818C9.51341 22.8255 9.6561 22.796 9.80039 22.7951H23.7582C24.0514 22.7963 24.3322 22.9136 24.5391 23.1214C24.746 23.3292 24.8622 23.6104 24.8621 23.9037V24.0646Z" fill="white"/>
<path d="M9.69094 14.4278C9.74808 14.4849 9.82558 14.517 9.90638 14.517C9.98719 14.517 10.0647 14.4849 10.1218 14.4278L11.1311 13.4185C11.1883 13.3614 11.2204 13.2839 11.2204 13.2031C11.2204 13.1223 11.1883 13.0448 11.1311 12.9876L10.7589 12.6153L11.6793 11.6951L13.053 13.0688L12.9626 13.1592C12.9055 13.2164 12.8734 13.2938 12.8734 13.3747C12.8734 13.4555 12.9055 13.533 12.9626 13.5901L13.5137 14.1412L13.3459 14.3091C13.2887 14.3662 13.2566 14.4437 13.2566 14.5245C13.2566 14.6053 13.2887 14.6828 13.3459 14.7399L14.0167 15.4107C14.1054 15.4994 14.2107 15.5698 14.3266 15.6178C14.4424 15.6658 14.5666 15.6905 14.6921 15.6905C14.8175 15.6905 14.9417 15.6658 15.0576 15.6178C15.1735 15.5698 15.2788 15.4994 15.3675 15.4107L19.4094 11.3688C19.5883 11.1896 19.6887 10.9467 19.6887 10.6934C19.6887 10.4402 19.5883 10.1973 19.4094 10.018L18.7386 9.34722C18.6814 9.29008 18.604 9.25798 18.5231 9.25798C18.4423 9.25798 18.3648 9.29008 18.3077 9.34722L18.1399 9.51505L17.5888 8.96392C17.5605 8.93562 17.5269 8.91317 17.4899 8.89786C17.453 8.88254 17.4133 8.87466 17.3733 8.87466C17.3333 8.87466 17.2937 8.88254 17.2567 8.89786C17.2198 8.91317 17.1862 8.93562 17.1579 8.96392L17.0675 9.05436L12.7647 4.75182L12.8551 4.66143C12.9122 4.60429 12.9443 4.52679 12.9443 4.44599C12.9443 4.36518 12.9122 4.28769 12.8551 4.23055L12.3039 3.67942L12.4718 3.51184C12.5289 3.4547 12.561 3.37721 12.561 3.2964C12.561 3.2156 12.5289 3.1381 12.4718 3.08096L11.8012 2.40989C11.6219 2.23105 11.379 2.13062 11.1258 2.13062C10.8726 2.13062 10.6297 2.23105 10.4504 2.40989L6.40854 6.45208C6.22968 6.63134 6.12923 6.87423 6.12923 7.12747C6.12923 7.3807 6.22968 7.6236 6.40854 7.80286L7.07936 8.47363C7.1365 8.53076 7.214 8.56286 7.2948 8.56286C7.37561 8.56286 7.4531 8.53076 7.51024 8.47363L7.67808 8.30605L8.22915 8.85718C8.28629 8.91431 8.36379 8.94641 8.44459 8.94641C8.5254 8.94641 8.60289 8.91431 8.66003 8.85718L8.75047 8.76679L10.1242 10.1405L9.2039 11.0607L8.83167 10.6884C8.80338 10.6601 8.76979 10.6377 8.73282 10.6223C8.69585 10.607 8.65622 10.5991 8.61621 10.5991C8.57619 10.5991 8.53657 10.607 8.4996 10.6223C8.46263 10.6377 8.42904 10.6601 8.40074 10.6884L7.39147 11.6977C7.33433 11.7549 7.30223 11.8324 7.30223 11.9132C7.30223 11.994 7.33433 12.0715 7.39147 12.1286L7.52233 12.2595L2.0281 17.147C1.74455 17.3992 1.54433 17.7317 1.45398 18.1003C1.36363 18.469 1.38742 18.8563 1.52219 19.2111C1.65696 19.5659 1.89635 19.8714 2.20864 20.0871C2.52093 20.3028 2.89139 20.4185 3.27092 20.4189C3.28971 20.4189 3.30865 20.4189 3.32754 20.4181C3.58275 20.4117 3.83389 20.3527 4.06524 20.2448C4.29659 20.1369 4.50318 19.9824 4.67208 19.7909L9.56008 14.297L9.69094 14.4278ZM18.5229 9.99361L18.9783 10.449C19.043 10.5139 19.0794 10.6018 19.0794 10.6935C19.0794 10.7851 19.043 10.873 18.9783 10.9379L14.9363 14.9798C14.8715 15.0446 14.7836 15.081 14.6919 15.081C14.6002 15.081 14.5122 15.0446 14.4474 14.9798L13.992 14.5244L18.5229 9.99361ZM17.3731 9.61032L17.7087 9.94598L13.9442 13.7102L13.6086 13.3746L17.3731 9.61032ZM7.29458 7.82703L6.83922 7.37168C6.77438 7.30683 6.73796 7.21889 6.73796 7.12719C6.73796 7.03549 6.77438 6.94755 6.83922 6.8827L10.8812 2.84082C10.946 2.77598 11.0339 2.73956 11.1256 2.73956C11.2173 2.73956 11.3053 2.77598 11.3701 2.84082L11.8254 3.29612L7.29458 7.82703ZM8.44442 8.21033L8.10875 7.87466L11.8731 4.11035L12.2087 4.44601L8.44442 8.21033ZM9.18115 8.33535L12.3338 5.18275L16.6363 9.48524L13.4837 12.6378L9.18115 8.33535ZM10.5548 10.5708L11.2482 11.2642L10.328 12.1845L9.63463 11.4911L10.5548 10.5708ZM8.61601 11.3343L10.4848 13.203L9.90636 13.7814L8.03761 11.9127L8.61601 11.3343ZM4.21677 19.3859C4.10238 19.5145 3.96291 19.6184 3.80692 19.6912C3.65093 19.764 3.48172 19.8041 3.30966 19.8092C3.1376 19.8142 2.96632 19.784 2.80635 19.7205C2.64637 19.6569 2.50107 19.5613 2.37936 19.4396C2.25765 19.3179 2.16209 19.1726 2.09856 19.0126C2.03502 18.8526 2.00485 18.6814 2.00989 18.5093C2.01493 18.3373 2.05508 18.168 2.12787 18.0121C2.20066 17.8561 2.30456 17.7166 2.43318 17.6022L7.95372 12.6906L9.12849 13.8653L4.21677 19.3859Z" fill="white"/>
<path d="M12.4157 6.23593C12.3584 6.17956 12.2812 6.14811 12.2008 6.14844C12.1204 6.14877 12.0434 6.18084 11.9866 6.23768C11.9297 6.29451 11.8977 6.37151 11.8973 6.45188C11.897 6.53226 11.9285 6.60951 11.9848 6.66681L12.2721 6.95408C12.3003 6.98237 12.3339 7.00482 12.3709 7.02013C12.4079 7.03544 12.4475 7.04332 12.4875 7.04332C12.5275 7.04332 12.5672 7.03544 12.6041 7.02013C12.6411 7.00482 12.6747 6.98237 12.703 6.95408C12.7313 6.92578 12.7537 6.89219 12.769 6.85522C12.7844 6.81825 12.7922 6.77863 12.7922 6.73861C12.7922 6.6986 12.7844 6.65897 12.769 6.622C12.7537 6.58503 12.7313 6.55144 12.703 6.52315L12.4157 6.23593Z" fill="white"/>
<path d="M15.1803 9.73622C15.2406 9.73622 15.2995 9.71835 15.3496 9.68486C15.3997 9.65138 15.4388 9.60379 15.4618 9.54811C15.4849 9.49244 15.4909 9.43117 15.4792 9.37207C15.4674 9.31296 15.4384 9.25868 15.3958 9.21607L13.3493 7.16933C13.2921 7.11218 13.2146 7.08008 13.1338 7.08008C13.053 7.08008 12.9755 7.11218 12.9183 7.16933C12.8612 7.22647 12.8291 7.30398 12.8291 7.38479C12.8291 7.46561 12.8612 7.54311 12.9183 7.60026L14.9648 9.64674C14.9931 9.67513 15.0267 9.69766 15.0636 9.71301C15.1006 9.72837 15.1403 9.73626 15.1803 9.73622Z" fill="white"/>
</svg>

<svg width="27" height="27" fill="none" xmlns="http://www.w3.org/2000/svg"><path d="M23.758 22.186h-.013v-1.334c0-.168-.15-.291-.319-.291H10.133a.29.29 0 00-.301.291v1.334H9.8a1.703 1.703 0 00-1.697 1.718v.462a.292.292 0 00.287.308h16.777a.306.306 0 00.303-.308v-.462a1.719 1.719 0 00-1.713-1.718zM10.44 21.17h12.696v1.016H10.44V21.17zm14.422 2.895H8.714v-.161A1.094 1.094 0 019.8 22.795h13.958a1.108 1.108 0 011.104 1.109v.16zM9.69 14.428a.305.305 0 00.432 0l1.01-1.01a.304.304 0 000-.43l-.373-.373.92-.92 1.374 1.374-.09.09a.305.305 0 000 .431l.55.551-.167.168a.304.304 0 000 .43l.67.672a.955.955 0 001.351 0l4.042-4.042a.956.956 0 000-1.351l-.67-.67a.305.305 0 00-.431 0l-.168.167-.551-.551a.305.305 0 00-.431 0l-.09.09-4.303-4.302.09-.09a.305.305 0 000-.431l-.551-.552.168-.167a.305.305 0 000-.431l-.67-.671a.956.956 0 00-1.352 0L6.41 6.452a.956.956 0 000 1.35l.67.672a.305.305 0 00.431 0l.168-.168.551.551a.305.305 0 00.431 0l.09-.09 1.374 1.373-.92.92-.372-.372a.306.306 0 00-.431 0l-1.01 1.01a.305.305 0 000 .43l.131.131-5.494 4.888a1.872 1.872 0 001.243 3.272h.057a1.855 1.855 0 001.344-.628l4.888-5.494.13.13zm8.833-4.434l.455.455a.346.346 0 010 .489l-4.042 4.042a.346.346 0 01-.489 0l-.455-.456 4.53-4.53zm-1.15-.384l.336.336-3.765 3.764-.335-.335 3.764-3.765zM7.295 7.827l-.456-.455a.346.346 0 010-.49l4.042-4.041a.345.345 0 01.49 0l.454.455-4.53 4.531zm1.15.383l-.336-.335 3.764-3.765.336.336L8.444 8.21zm.736.125l3.153-3.152 4.302 4.302-3.152 3.153L9.18 8.335zm1.374 2.236l.693.693-.92.92-.693-.693.92-.92zm-1.939.763l1.869 1.869-.579.578-1.868-1.868.578-.579zm-4.4 8.052a1.264 1.264 0 11-1.783-1.784l5.52-4.911 1.175 1.174-4.911 5.52z" fill="#fff"/><path d="M12.416 6.236a.305.305 0 00-.431.43l.287.288a.303.303 0 00.431 0 .304.304 0 000-.43l-.287-.288zm2.764 3.5a.305.305 0 00.216-.52L13.349 7.17a.305.305 0 00-.43.431l2.046 2.047a.305.305 0 00.215.09z" fill="#fff"/></svg>
